src/22/actions/tool_polygon.svg

<svg xmlns="http://www.w3.org/2000/svg" viewBox="0 0 22 22">
  <defs id="defs3051">
    <style type="text/css" id="current-color-scheme">
      .ColorScheme-Text {
        color:#5d656b;
      }
      </style>
  </defs>
 <path 
     style="fill:currentColor;fill-opacity:1;stroke:none" 
     d="M 3 3 L 3 4 L 3 14 L 3 15 L 7 15 L 7 19 L 8 19 L 19 19 L 19.992188 19 L 20 18.992188 L 11.707031 10.699219 L 9 7.9921875 L 9 4 L 9 3 L 4 3 L 3 3 z M 4 4 L 8 4 L 8 8 L 8 8.40625 L 11 11.40625 L 17.59375 18 L 8 18 L 8 14 L 7 14 L 4 14 L 4 4 z "
     class="ColorScheme-Text"
     />
 <path 
     style="fill:currentColor;fill-opacity:0.5;stroke:none" 
     d="m 568.87865,625.6479 -9.59293,-9.59292 0,-4.40708 -4,0 0,10 4,0 0,4 z"
     class="ColorScheme-Text"
     transform="translate(-551.28571,-607.64789)"
     />
</svg>

<svg xmlns="http://www.w3.org/2000/svg" viewBox="0 0 22 22"><defs id="defs3051"><style type="text/css" id="current-color-scheme">.ColorScheme-Text{color:#5d656b}</style></defs><path d="M3 3v12h4v4h12.992l.008-.008-8.293-8.293L9 7.992V3H3zm1 1h4v4.406l3 3L17.594 18H8v-4H4V4z" class="ColorScheme-Text" fill="currentColor"/><path d="M17.593 18L8 8.407V4H4v10h4v4z" class="ColorScheme-Text" fill="currentColor" fill-opacity=".5"/></svg>
